X:0012
M:2/4
L:1/8
Q:1/4=104
K:G
d>edc|BGGB|cBAG|FDDA |BGGB|cAAg|fde^c            |d2d2:|

